assets/icons/icon-conversation/web/icon-conversation.svg

<?xml version="1.0" encoding="UTF-8" standalone="no"?>
<svg width="48px" height="48px" viewBox="0 0 48 48" version="1.1" xmlns="http://www.w3.org/2000/svg" xmlns:xlink="http://www.w3.org/1999/xlink">
    <!-- Generator: Sketch 45.2 (43514) - http://www.bohemiancoding.com/sketch -->
    <title>icon-conversation</title>
    <desc>Created with Sketch.</desc>
    <defs></defs>
    <g id="Symbols" stroke="none" stroke-width="1" fill="none" fill-rule="evenodd">
        <g id="icon-conversation" fill="#2D2D2D">
            <path d="M9,27.2473247 C9,22.6288958 13.4484625,18.908173 18.9107319,18.908173 C24.3730012,18.908173 28.8214637,22.6288958 28.8214637,27.2473247 C28.8214637,31.8657536 24.3730012,35.5864763 18.9107319,35.5864763 C18.1165877,35.5864763 17.3252183,35.5004358 16.5319338,35.3343888 L10.6127838,37.5914944 L11.8979952,33.1312735 C10.0582782,31.5809333 9,29.4877642 9,27.2473247 Z M15.9453977,33.5471392 C16.1234486,33.4796061 16.3126222,33.4449427 16.50298,33.4449427 C16.6161938,33.4449427 16.7294188,33.4571089 16.8351119,33.4810704 C17.5371913,33.6340857 18.2353452,33.7114008 18.9107319,33.7114008 C23.3392142,33.7114008 26.9192649,30.7960715 26.9192649,27.2473247 C26.9192649,23.6981955 23.3394689,20.7832485 18.9107319,20.7832485 C14.4819949,20.7832485 10.9021989,23.6981955 10.9021989,27.2473247 C10.9021989,28.9689734 11.741112,30.5921251 13.2762954,31.8240353 C13.757467,32.2099221 13.9588212,32.8419426 13.7889118,33.4303251 L13.4849139,34.4852723 L15.9453977,33.5471392 Z M20.0079092,17.3238861 L20.0079092,17.3238861 C19.7558051,17.3080396 19.5014019,17.2999878 19.244976,17.2999878 C18.7585832,17.2999878 18.2794677,17.3289575 17.8095166,17.3851424 L17.9870377,17.0386493 C19.54329,14.0010903 23.1008019,12 27.0892681,12 C32.5519313,12 37,15.720554 37,20.3391517 C37,22.579548 35.9412252,24.6737299 34.1014559,26.2231576 L35.3873146,30.6833175 L30.3287776,28.7547 C30.3692352,28.3956885 30.3899765,28.03122 30.3899765,27.6622473 C30.3899765,27.3551465 30.3756081,27.0511659 30.3474622,26.7508551 L32.5142286,27.577 L32.2098655,26.5220546 C32.0406113,25.9340393 32.2421247,25.3017705 32.7231383,24.9152453 C34.2587233,23.6840316 35.0978011,22.0609935 35.0978011,20.3391517 C35.0978011,16.7904049 31.5177505,13.8750755 27.0892681,13.8750755 C24.1150252,13.8750755 21.4291532,15.2036908 20.0389963,17.2775107 L20.0079092,17.3238861 Z"></path>
        </g>
    </g>
</svg>

<svg width="48" height="48" viewBox="0 0 48 48" xmlns="http://www.w3.org/2000/svg"><title>icon-conversation</title><path d="M9 27.247c0-4.618 4.448-8.339 9.91-8.339 5.463 0 9.911 3.72 9.911 8.34 0 4.618-4.448 8.338-9.91 8.338-.794 0-1.586-.086-2.38-.252l-5.918 2.257 1.285-4.46C10.058 31.581 9 29.488 9 27.247zm6.945 6.3a1.573 1.573 0 0 1 .89-.066c.702.153 1.4.23 2.076.23 4.428 0 8.008-2.915 8.008-6.464 0-3.549-3.58-6.464-8.008-6.464-4.429 0-8.009 2.915-8.009 6.464 0 1.722.84 3.345 2.374 4.577.481.386.683 1.018.513 1.606l-.304 1.055 2.46-.938zm4.063-16.223a12.16 12.16 0 0 0-2.198.061l.177-.346C19.543 14 23.101 12 27.089 12 32.552 12 37 15.72 37 20.34c0 2.24-1.059 4.334-2.899 5.883l1.286 4.46-5.058-1.928a9.752 9.752 0 0 0 .018-2.004l2.167.826-.304-1.055a1.52 1.52 0 0 1 .513-1.607c1.536-1.231 2.375-2.854 2.375-4.576 0-3.549-3.58-6.464-8.009-6.464-2.974 0-5.66 1.329-7.05 3.403l-.031.046z" fill="#2D2D2D" fill-rule="evenodd"/></svg>
